X: 42161
T: Water Under The Keel
R: jig
M: 6/8
K: Gmajor
|:gdc BdG|GAc BdG|gdc BdG|ABc def|
gdc BdG|GAc BdG|gdB edc|dAd G3:|
afd g3|afd gab|afd g3|afd cdA|
afd g3|afd gab|afd g3|gec BcA|
afd g3|afd gab|afd g3|afd cdA|
afd g3|afd gab|c'ba bag|afd BcA||
|:gdc BdG|GAc BdG|gdc BdG|ABc def|
gdc BdG|GAc BdG|gdB edc|dAd G3:|
afd g3|afd gab|afd g3|afd cdA|
afd gfd|afd gab|afd g3|gec BcA|
afd gfd|afd gab|afd g3|afd cdA|
afd gfd|afd gab|c'ba bag|afd BcA||
|:gdc BdG|GAc BdG|gdc BdG|ABc def|
gdc BdG|GAc BdG|gdB edc|dAd G3:|
|:bgd cdf|gdc Bdg|bgd cdf|gdc Bdg|
afd cdf|gdc Bdg|afd cdA|ABd cdA:|
|:bgd cdf|gdc Bdg|bgd cdf|gdc Bdg|
afd cdf|gdc Bdg|afd g3|a2b c'ba:|
|:bgd cdf|gdc Bdg|bgd cdf|gdc Bdg|
afd cdf|gdc Bdg|afd gfd|afd gfd:|
|:gdc BdG|GAc BdG|gdB edc|dAd G3||

